X:1
T:Henry, CM
T:Henry, CM
T:Sylvanus Billings Pond, 1835
T:Public Domain Courtesy of the Cyber Hymnal™
C:Sylvanus Billings Pond, 1835
Z:Public Domain
Z:Courtesy of the Cyber Hymnal™
%%score ( 1 2 ) ( 3 4 )
L:1/8
M:4/4
K:Bb
V:1 treble 
V:2 treble 
V:3 bass 
V:4 bass 
V:1
 [DB]4 [DB]2 [GB]2 | B6 F2 | [EG]4 [EA]4 | [DB]8 | [Fc]4 [Fc]2 [Fd]2 | ([Fc]3 [=EB] [FA]2) [EG]2 | %6
 F6 F2 | ([Dd]3 [Ec] [FB]2) [DF]2 | (F3 E [B,D]2) [DF]2 | ([EG]2 [^FA]2 [GB]2) [Gc]2 | (B4 A2) F2 | %11
 ([Fd]3 [Ec] [DB]2) [FB]2 | (A2 c2 e2) [FA]2 | [FB]8 |] %14
V:2
 x8 | (F3 E D2) F2 | x8 | x8 | x8 | x8 | F6 F2 | x8 | C4 x4 | x8 | F6 F2 | x8 | F6 x2 | x8 |] %14
V:3
 [B,,B,]4 [B,,B,]2 [E,B,]2 | B,6 [D,B,]2 | [E,B,]4 F,4 | [B,,F,]8 | [F,A,]4 [F,A,]2 [B,,B,]2 | %5
 (A,3 G, F,2) [C,B,]2 | [F,A,]6 F,2 | F,6 [B,,F,]2 | F,6 [B,,B,]2 | ([E,B,]2 D4) [E,E]2 | %10
 (D4 C2) [F,A,]2 | [B,,B,]6 [B,,D]2 | (C2 A,2 C2) [F,,F,E]2 | [B,,D]8 |] %14
V:4
 x8 | (D,3 C, B,,2) x2 | x4 F,4 | x8 | x8 | C,6 x2 | x6 F,2 | (B,,3 C, D,2) x2 | (A,,4 B,,2) x2 | %9
 x2 (D,2 G,2) x2 | F,6 x2 | x8 | F,6 x2 | x8 |] %14

